X: 28987
T: National
R: polka
M: 2/4
K: Gmajor
D|BD GB|dG Bd|cD FA|Gg dB|
BD GB|dG Bd|cD FA|GG/G/ G||
G|EG Be|gB/B/ BB|dF/F/ FF|BG/G/ GG|
EG Be|gB/B/ BB|dF/F/ FF|GG G||
d|gB fe|ed dc/B/|Ac fa|a/g/g/f/ g2|
gB fe|ed dc/B/|Ac fa|gg g||

